!!!COM: Francesco Soriano
!!!OPR: Canoni et oblighi di cento et dieci sorte sopra l'Ave Maris Stella"
!!!PPR: Giovanni Battista Robletti
!!!PDT: 1610
!!!OTL: Canon alla sesta alta.  Al sospiro.
**kern	**kern	**kern
*CF	*guida	*conseq
*k[]	*M4/2	*M4/2
*M4/2	*k[]	*k[]
*MM138	*MM138	*MM138
=1	=1	=1
0D	2.A	2r
.	.	2.f
.	4F	.
.	1f	.
.	.	4d
.	.	[2dd
=2	=2	=2
(0A	1e	2dd]
.	.	1cc
.	2e	.
.	4r	2cc
.	4f	.
=3	=3	=3
0B)	2.d	4r
.	.	4dd
.	.	2.b
.	4d	.
.	2d	.
.	.	4b
.	2d	2b
=4	=4	=4
0G	1e	2b
.	.	1cc
.	2d	.
.	2e	2b
=5	=5	=5
(0A	4r	2cc
.	2c	.
.	.	4r
.	4A	2a
.	2c	.
.	.	4f
.	2F	2a
=6	=6	=6
0B	4r	2d
.	2d	.
.	.	4r
.	4B	2b
.	2d	.
.	.	4g
.	2G	2b
=7	=7	=7
0c	4r	2e
.	2g	.
.	.	4r
.	4e	2ee
.	2g	.
.	.	4cc
.	2c	2ee
=8	=8	=8
0d	4r	2a
.	2a	.
.	.	4r
.	4f	2ff
.	2a	.
.	.	4dd
.	4g	2ff
.	4f	.
=9	=9	=9
0c	2g	4ee
.	.	4dd
.	2g	2ee
.	2c	2ee
.	2r	2a
=10	=10	=10
0B	1d	2r
.	.	1b
.	2.G	.
.	.	[2e
.	4E	.
=11	=11	=11
0A	2.e	4e]
.	.	4c
.	.	2.cc
.	4c	.
.	2e	.
.	.	4a
.	4d	2cc
.	4c	.
=12	=12	=12
0G	1d	4b
.	.	4a
.	.	1b
.	2d	.
.	2G	2b
=13	=13	=13
0A	2r	2e
.	8c	2r
.	8B	.
.	8c	.
.	8d	.
.	2.e	8a
.	.	8g
.	.	8a
.	.	8b
.	.	[2cc
.	4e	.
=14	=14	=14
0A	2e	4cc]
.	.	4cc
.	8c	2cc
.	8B	.
.	8c	.
.	8d	.
.	2.e	8a
.	.	8g
.	.	8a
.	.	8b
.	.	[2cc
.	4e	.
=15	=15	=15
0A	1e	4cc]
.	.	4cc
.	.	1cc
.	2.f	.
.	.	[2dd
.	4f	.
=16	=16	=16
0G	2.e	4dd]
.	.	4dd
.	.	2.cc
.	4e	.
.	2d	.
.	.	4cc
.	[2e	2b
=17	=17	=17
0A	2e]	1cc
.	2e	.
.	2e	2cc
.	[2A	2cc
=18	=18	=18
0D	2A]	1f
.	2a	.
.	1f	2ff
.	.	[2dd
=19	=19	=19
0E	2e	2dd]
.	4r	2cc
.	4g	.
.	1e	4r
.	.	4ee
.	.	[2cc
=20	=20	=20
0G	2.d	2cc]
.	.	2.b
.	4B	.
.	2d	.
.	.	4g
.	4c	2b
.	4B	.
=21	=21	=21
0F	2.c	4a
.	.	4g
.	.	2.a
.	4A	.
.	2c	.
.	.	4f
.	4B	2a
.	4A	.
=22	=22	=22
0E	2.B	4g
.	.	4f
.	.	2.g
.	4G	.
.	2B	.
.	.	4e
.	4A	2g
.	4G	.
=23	=23	=23
0D	1A	4f
.	.	4e
.	.	1f
.	2A	.
.	[2B	2f
=24	=24	=24
0E	2B]	1g
.	2B	.
.	2.c	2g
.	.	[2a
.	8B	.
.	8A	.
=25	=25	=25
0D	1B-	4a]
.	.	8g
.	.	8f
.	.	1g
.	1A	.
.	.	[2f
=26	=26	=26
0F	2A	2f]
.	1c	2f
.	.	1a
.	4B	.
.	4A	.
=27	=27	=27
0E	1B	4g
.	.	4f
.	.	1g
.	1e	.
.	.	[2cc
=28	=28	=28
0G	1d	2cc]
.	.	1b
.	1g	.
.	.	[2ee
=29	=29	=29
0A	1f	2ee]
.	.	1dd
.	1e	.
.	.	[2cc
=30	=30	=30
0A	2e	2cc]
.	2c	2cc
.	2r	2a
.	[2A	2r
=31	=31	=31
0D	2A]	1f
.	2A	.
.	2A	2f
.	[2B	2f
=32	=32	=32
0E	2B]	1g
.	2B	.
.	2B	2g
.	[2c	2g
=33	=33	=33
0F	2c]	1a
.	2c	.
.	2c	2a
.	4B	2a
.	4A	.
=34	=34	=34
0E	1B	4g
.	.	4f
.	.	1g
.	2B	.
.	4A	2g
.	4G	.
=35	=35	=35
0D	2A	4f
.	.	4e
.	1a	2f
.	.	1ff
.	4g	.
.	4f	.
=36	=36	=36
0C	2g	4ee
.	.	4dd
.	2e	2ee
.	1g	2cc
.	.	[2ee
=37	=37	=37
0E	2g	2ee]
.	2G	2ee
.	1B	2e
.	.	[2g
=38	=38	=38
0G	2B	2g]
.	1d	2g
.	.	1b
.	2B	.
=39	=39	=39
0E	1c	2g
.	.	1a
.	2B	.
.	[2c	2g
=40	=40	=40
0F	4c]	2.a
.	4A	.
.	1c	.
.	.	4f
.	.	1a
.	4B	.
.	4A	.
=41	=41	=41
0E	2.B	4g
.	.	4f
.	.	2.g
.	4G	.
.	2B	.
.	.	4e
.	4A	2g
.	4G	.
=42	=42	=42
0D	0A	4f
.	.	4e
.	.	1.f
==	==	==
*-	*-	*-
!!!CDT: 1548/|1549//-1621//
!!!OCY: Italia
!!!ODT: 1610
!!!AFR: cantus firmus canon
!!!AST: polyphony
!!!AMT: simple quadruple
!!!AIN: vox
!!!YEP: David Huron and Denis Collins
!!!YEN: Canada
!!!EEV: 1.0
!!!RDT: 1995 April 29
!!!YED: 1995 August 31
